X:1
T:I’m Happy with Jesus Alone
T:Charles Price Jones (1865-1949)
T:I’m Happy with Jesus Alone
T:Public Domain
T:Public Domain
C:Charles Price Jones (1865-1949)
Z:Public Domain
%%score ( 1 2 ) ( 3 4 )
L:1/8
M:6/8
K:G
V:1 treble 
V:2 treble 
V:3 bass 
V:4 bass 
V:1
 [B,D] | [B,G]>[B,G][B,G] [DB]>[DA][DG] | [EG]>[DF][CE] [B,D]2 [B,D] | %3
w: 1.~There’s|no- thing so pre- cious as|Je- sus to me; Let|
w: 2.~When|sin- ful and doomed to a|life of des- pair, No|
w: 3.~When|no- thing but death for my|ran- som could pay, And|
 [DG]>[DG][DG] [^CB]>[CA][CG] | [DA-]3 [CA]2 [CD] | [B,G]>[B,G][B,G] [DB]>[DA][DG] | %6
w: earth with its trea- sures be|gone; I’m rich|as can be when my Sav-|
w: light on my path- way to|shine, ’Twas Je-|sus who found me and made|
w: make me ac- cept- ed with|God, ’Twas Je-|sus who free- ly Him- self|
 [EG]>[DF][CE] [B,D]2 D | [DG]>[DG][GB] [FA]>[FB][FA] | [DG]3- [DG]2 ||"^Refrain" [Gd] | %10
w: ior I see; I’m hap-|in Je- sus a- lone. *|||
w: me an heir To man-|of glo- ry di- vine. I’m|hap- *|py|
w: made a prey And ran-|my soul with His blood. *|||
 [Gd]>[GB][Gd] [Ge]>[Gc][Ge] | (G2 A [Bd]2) [Bg] | [Gd]>[GB][GB] [GB]>[GA][EG] | %13
w: |||
w: with Je- sus a- lone, I’m|hap- * * py|Je- sus a- lone; Tho’ poor|
w: |||
 (F2 G [Ad]2) [CD] | [B,G]>[B,G][B,G] [DB]>[DA][DG] | [EG]>[DF][CE] [B,D]2 D | %16
w: |||
w: and * * de-|ed, thank God, * I can|say, I’m hap- py in|
w: |||
 [DG]>[DG][GB] [FA]>[FB][FA] | [DG]3- [DG]2 |] %18
w: ||
w: sus a- lone. * * *||
w: ||
V:2
 x | x6 | x6 | x6 | x6 | x6 | x5 D | x6 | x5 || x | x6 | d3- x3 | x6 | d3- x3 | x6 | x5 D | x6 | %17
w: ||||||py|||||||||||
w: ||||||sions|||||with||sert-||Je-||
w: ||||||somed|||||||||||
 x5 |] %18
w: |
w: |
w: |
V:3
 [G,,G,] | [G,,D,]>[G,,D,][G,,D,] [G,,G,]>[A,,F,][B,,G,] | [C,G,]>[C,G,][C,G,] [G,,G,]2 G, | %3
 [G,B,]>[G,B,][G,B,] [E,G,]>[E,G,][E,G,] | [D,F,]3- [D,F,]2 [D,F,] | %5
 [G,,G,]>[G,,D,][G,,D,] [G,,G,]>[A,,F,][B,,G,] | [C,C]>[C,C][E,G,] G,2 [G,B,] | %7
 [D,B,]>[D,B,][D,D] [D,C]>[D,D][D,C] | [G,,B,]3- [G,,B,]2 || [G,B,] | %10
 [G,B,]>[G,D][G,B,] [C,C]>[C,E][C,C] | (B,2 C [G,D]2) [G,D] | [G,B,]>[G,D][G,D] [E,^C]>[E,C][E,C] | %13
 (DA,B, [D,C]2) [D,F,] | [G,,G,]>[G,,D,][G,,D,] [G,,G,]>[A,,F,][B,,G,] | %15
 [C,C]>[C,C][E,G,] G,2 [G,B,] | [D,B,]>[D,B,][D,D] [D,C]>[D,D][D,C] | [G,,B,]3- [G,,B,]2 |] %18
V:4
 x | x6 | x5 G, | x6 | x6 | x6 | x3 G,2 x | x6 | x5 || x | x6 | G,3- x3 | x6 | D,3- x3 | x6 | %15
 x3 G,2 x | x6 | x5 |] %18

